X:227
T:16/16
C:David Grisman
N:From the "Hot Dawg" album Tabeldited by Mike Stangeland 
L:1/8
Q:1/4=236
M:4/4
K:Bb
z8 |: "Bb"dB A_G "D7"zB AG | "Gm"GG,7/1 | "Bb"dB A_G "D7"zB AF | "Ebmaj7"GF (3EFE CE D_G | 
"Gm"GB2_G "F#dim7"zB2F | "Gm"zB2=E "Em7"zB2F | "Cm7"(3EFE CE "D7"DB, G,2 | "Gm"z8 :|: z8 | 
z8 | z8 | z8 | z8 | z8 | z8 | z8 | z8 | z8 | z8 | z8 | z8 | z8 | z8 | z8 | z8 | 
z8 | z8 | z8 | z8 | z8 | z8 | z8 | z8 | z8 | z8 | z8 | z8 | z8 | z8 |6 z8 :|: (3"Ebmaj7"[d'd][d'd][d'd] (3[d'd][d'd][d'd] (3[d'd][d'd][d'd] (3[d'd][d'd][d'd] | 
(3[d'd][d'd][d'd] (3[d'd][d'd][d'd] (3[d'd][d'd][d'd] (3[d'd][d'd][d'd] | (3[d'd][d'd][d'd] (3[d'd][d'd][d'd] (3[d'd][d'd][d'd] (3[d'd][d'd][d'd] | 
[d'3d3][c'3c3] [b2B2] | (3"Dm7"[c'c][c'c][c'c] (3[c'c][c'c][c'c] (3[c'c][c'c][c'c] (3[c'c][c'c][c'c] | 
(3[gG][gG][gG] (3[gG][gG][gG] (3[gG][gG][gG] (3[gG][gG][gG] | (3[gG][gG][gG] (3[gG][gG][gG] (3[gG][gG][gG] (3[gG][gG][gG] | 
|1 (3[gG][gG]"Dm7"[gG] (3[gG][gG][gG] (3[gG][gG][gG] (3[gG][gG][gG] :|3 [d'3d3][c'3c3] [b2B2] | 
(3"Cm"[c'c][c'c][c'c] (3[c'c][c'c][c'c] (3[c'c][c'c][c'c] (3[c'c][c'c][c'c] | 
(3[c'c][c'c][c'c] (3[c'c][c'c][c'c] (3[c'c][c'c][c'c] (3[c'c][c'c][c'c] | (3[c'c][c'c][c'c] (3[c'c][c'c][c'c] (3[c'c][c'c][c'c] [d'2d2] | 
[f'3f3][f'3f3] [f'2f2] | (3"D7"[d'd][d'd][d'd] (3[d'd][d'd][d'd] (3[d'd][d'd][d'd] (3[d'd][d'd][d'd] | 
(3[d'd][d'd][d'd] (3[d'd][d'd][d'd] (3[d'd][d'd][d'd] (3[d'd][d'd][d'd] | (3[d'd][d'd][d'd] (3[d'd][d'd][d'd] (3[d'd][d'd][d'd] (3[d'd][d'd][d'd] | 
(3[d'd][d'd][d'd] (3[d'd][d'd][d'd] (3[d'd][d'd][d'd] (3[d'd][d'd][d'd] | 
 

